src/assets/snsIcon_k.svg

<svg width="42" height="42" viewBox="0 0 42 42" fill="none" xmlns="http://www.w3.org/2000/svg">
    <circle cx="21" cy="21" r="21" fill="#F5E14B"/>
    <g clip-path="url(#clip0_67_6087)">
        <path d="M17.5012 21.1897H18.9987L18.25 19.0615L17.5012 21.1897Z" fill="#331D1E"/>
        <path d="M21 10C13.82 10 8 14.5902 8 20.2532C8 23.9143 10.4337 27.1304 14.0938 28.9409C13.895 29.6274 12.8137 33.3598 12.7712 33.6536C12.7712 33.6536 12.745 33.8737 12.8875 33.9575C12.9352 33.9815 12.9873 33.9956 13.0406 33.9988C13.0939 34.0021 13.1473 33.9944 13.1975 33.9762C13.6075 33.9187 17.9475 30.874 18.6975 30.3501C19.4604 30.4561 20.2298 30.5083 21 30.5064C28.18 30.5064 34 25.9162 34 20.2532C34 14.5902 28.18 10 21 10ZM14.5662 18.6615C14.55 20.1119 14.5787 21.6374 14.555 23.0653C14.5475 23.5217 14.285 23.658 13.93 23.7881C13.8899 23.8022 13.8467 23.8053 13.805 23.7968C13.3987 23.7168 13.075 23.5717 13.065 23.0666C13.0363 21.6399 13.0738 20.1119 13.0538 18.6615C12.71 18.6477 12.22 18.6752 11.9012 18.6615C11.4587 18.6327 11.1513 18.3514 11.17 17.9325C11.1888 17.5136 11.4125 17.2123 11.9088 17.2048C13.0813 17.1872 14.5338 17.1872 15.7063 17.2048C16.2063 17.2123 16.4288 17.5148 16.4438 17.9325C16.4588 18.3501 16.1562 18.6327 15.715 18.6615C15.4 18.6752 14.9112 18.6477 14.5662 18.6615ZM20.8663 23.7193C20.7163 23.7875 20.5535 23.8229 20.3888 23.8231C20.0763 23.8231 19.8375 23.698 19.7638 23.4917L19.3888 22.5189H17.1062L16.7312 23.4917C16.6587 23.6955 16.42 23.8231 16.1062 23.8231C15.9419 23.8231 15.7795 23.7877 15.63 23.7193C15.4225 23.6243 15.2238 23.3617 15.4513 22.654L17.25 17.93C17.3254 17.7219 17.4605 17.5407 17.6384 17.409C17.8163 17.2774 18.029 17.2011 18.25 17.1897C18.4708 17.2023 18.6831 17.2792 18.8608 17.4109C19.0385 17.5427 19.1738 17.7235 19.25 17.9312L21.0425 22.6527C21.2712 23.3617 21.0725 23.6293 20.8663 23.7193ZM24.6562 23.7193H22.25C22.0636 23.723 21.8834 23.6527 21.7487 23.5238C21.614 23.3949 21.5358 23.218 21.5312 23.0316V17.94C21.5392 17.7422 21.6234 17.5552 21.7661 17.4181C21.9088 17.281 22.099 17.2044 22.2969 17.2044C22.4947 17.2044 22.6849 17.281 22.8276 17.4181C22.9704 17.5552 23.0545 17.7422 23.0625 17.94V22.3476H24.6562C24.75 22.3419 24.844 22.3555 24.9323 22.3875C25.0206 22.4195 25.1015 22.4693 25.1699 22.5337C25.2383 22.5981 25.2928 22.6758 25.33 22.7621C25.3673 22.8484 25.3865 22.9414 25.3865 23.0353C25.3865 23.1293 25.3673 23.2223 25.33 23.3085C25.2928 23.3948 25.2383 23.4725 25.1699 23.5369C25.1015 23.6014 25.0206 23.6511 24.9323 23.6831C24.844 23.7151 24.75 23.7287 24.6562 23.723V23.7193ZM30.5312 23.1541C30.5117 23.3021 30.4485 23.4409 30.3497 23.5528C30.2509 23.6646 30.121 23.7445 29.9766 23.7821C29.8321 23.8197 29.6798 23.8133 29.539 23.7638C29.3982 23.7143 29.2754 23.6239 29.1863 23.5042L27.4275 21.1747L27.1675 21.4348V23.0716C27.1675 23.2706 27.0885 23.4614 26.9478 23.6021C26.8072 23.7428 26.6164 23.8218 26.4175 23.8218C26.2186 23.8218 26.0278 23.7428 25.8872 23.6021C25.7465 23.4614 25.6675 23.2706 25.6675 23.0716V17.945C25.6675 17.746 25.7465 17.5552 25.8872 17.4145C26.0278 17.2738 26.2186 17.1947 26.4175 17.1947C26.6164 17.1947 26.8072 17.2738 26.9478 17.4145C27.0885 17.5552 27.1675 17.746 27.1675 17.945V19.553L29.26 17.4598C29.3148 17.4056 29.3798 17.3629 29.4513 17.3342C29.5227 17.3054 29.5992 17.2912 29.6763 17.2923C29.8635 17.2972 30.0424 17.3711 30.1785 17.4999C30.3146 17.6287 30.3984 17.8032 30.4137 17.99C30.4205 18.0733 30.4094 18.1572 30.3811 18.2359C30.3529 18.3146 30.3082 18.3863 30.25 18.4464L28.5375 20.1557L30.3838 22.6027C30.5033 22.7614 30.555 22.9611 30.5275 23.1579L30.5312 23.1541Z" fill="#331D1E"/>
    </g>
    <defs>
        <clipPath id="clip0_67_6087">
            <rect width="26" height="24" fill="white" transform="translate(8 10)"/>
        </clipPath>
    </defs>
</svg>

<svg xmlns="http://www.w3.org/2000/svg" width="42" height="42" fill="none"><circle cx="21" cy="21" r="21" fill="#F5E14B"/><g fill="#331D1E" clip-path="url(#a)"><path d="M17.501 21.19H19l-.749-2.129-.749 2.129Z"/><path d="M21 10c-7.18 0-13 4.59-13 10.253 0 3.661 2.434 6.877 6.094 8.688-.199.686-1.28 4.419-1.323 4.713 0 0-.026.22.116.303a.393.393 0 0 0 .31.02c.41-.058 4.75-3.103 5.5-3.627.763.106 1.533.158 2.303.156 7.18 0 13-4.59 13-10.253S28.18 10 21 10Zm-6.434 8.662c-.016 1.45.013 2.975-.011 4.403-.008.457-.27.593-.625.723a.235.235 0 0 1-.125.009c-.406-.08-.73-.225-.74-.73-.029-1.427.009-2.955-.011-4.405-.344-.014-.834.013-1.153 0-.442-.03-.75-.31-.731-.73.019-.418.242-.72.739-.727a136.57 136.57 0 0 1 3.797 0c.5.007.723.31.738.728.015.417-.288.7-.729.729-.315.013-.804-.014-1.149 0Zm6.3 5.057c-.15.069-.313.104-.477.104-.313 0-.552-.125-.625-.331l-.375-.973h-2.283l-.375.973c-.072.203-.311.331-.625.331-.164 0-.327-.035-.476-.104-.208-.095-.406-.357-.179-1.065l1.799-4.724a1.125 1.125 0 0 1 1-.74 1.134 1.134 0 0 1 1 .741l1.793 4.722c.228.709.03.976-.177 1.066Zm3.79 0H22.25a.705.705 0 0 1-.719-.687V17.94a.767.767 0 0 1 1.532 0v4.408h1.593a.688.688 0 1 1 0 1.375v-.004Zm5.875-.565a.75.75 0 0 1-1.345.35l-1.759-2.33-.26.26v1.638a.75.75 0 1 1-1.5 0v-5.127a.75.75 0 1 1 1.5 0v1.608l2.093-2.093a.578.578 0 0 1 .416-.168.76.76 0 0 1 .738.698.586.586 0 0 1-.164.456l-1.712 1.71 1.846 2.447a.75.75 0 0 1 .143.555l.004-.004Z"/></g><defs><clipPath id="a"><path fill="#fff" d="M8 10h26v24H8z"/></clipPath></defs></svg>
